vendor/shopware/storefront/Resources/app/storefront/dist/assets/icon/default/puzzle-piece.svg

<svg xmlns="http://www.w3.org/2000/svg" width="24" height="24" viewBox="0 0 24 24">
  <path fill="#758CA3" fill-rule="evenodd" d="M20,16 C17.790861,16 16,14.209139 16,12 C16,9.790861 17.790861,8 20,8 L20,6 L14,6 L14,4 C14,2.8954305 13.1045695,2 12,2 C10.8954305,2 10,2.8954305 10,4 L10,6 L4,6 L4,8 C6.209139,8 8,9.790861 8,12 C8,14.209139 6.209139,16 4,16 L4,18 L10,18 L10,20 C10,21.1045695 10.8954305,22 12,22 C13.1045695,22 14,21.1045695 14,20 L14,18 L20,18 L20,16 Z M12,24 C9.790861,24 8,22.209139 8,20 L3,20 C2.44771525,20 2,19.5522847 2,19 L2,15 C2,14.4477153 2.44771525,14 3,14 L4,14 C5.1045695,14 6,13.1045695 6,12 C6,10.8954305 5.1045695,10 4,10 L3,10 C2.44771525,10 2,9.55228475 2,9 L2,5 C2,4.44771525 2.44771525,4 3,4 L8,4 C8,1.790861 9.790861,4.05812251e-16 12,0 C14.209139,-4.05812251e-16 16,1.790861 16,4 L21,4 C21.5522847,4 22,4.44771525 22,5 L22,9 C22,9.55228475 21.5522847,10 21,10 L20,10 C18.8954305,10 18,10.8954305 18,12 C18,13.1045695 18.8954305,14 20,14 L21,14 C21.5522847,14 22,14.4477153 22,15 L22,19 C22,19.5522847 21.5522847,20 21,20 L16,20 C16,22.209139 14.209139,24 12,24 Z"/>
</svg>

<svg xmlns="http://www.w3.org/2000/svg" width="24" height="24" viewBox="0 0 24 24"><path fill="#758CA3" fill-rule="evenodd" d="M20 16c-2.2091 0-4-1.7909-4-4 0-2.2091 1.7909-4 4-4V6h-6V4c0-1.1046-.8954-2-2-2s-2 .8954-2 2v2H4v2c2.2091 0 4 1.7909 4 4 0 2.2091-1.7909 4-4 4v2h6v2c0 1.1046.8954 2 2 2s2-.8954 2-2v-2h6v-2zm-8 8c-2.2091 0-4-1.7909-4-4H3c-.5523 0-1-.4477-1-1v-4c0-.5523.4477-1 1-1h1c1.1046 0 2-.8954 2-2s-.8954-2-2-2H3c-.5523 0-1-.4477-1-1V5c0-.5523.4477-1 1-1h5c0-2.2091 1.7909-4 4-4 2.2091 0 4 1.7909 4 4h5c.5523 0 1 .4477 1 1v4c0 .5523-.4477 1-1 1h-1c-1.1046 0-2 .8954-2 2s.8954 2 2 2h1c.5523 0 1 .4477 1 1v4c0 .5523-.4477 1-1 1h-5c0 2.2091-1.7909 4-4 4z"/></svg>
